X: 40149
T: Tilly's
R: jig
M: 6/8
K: Dmixolydian
FAd fed|eAB c2B|ABc BAG|ADD CDA,|
FAd fed|eAB c2B|ABc BAG|ADD D3:|
A,CE AEC|B,DG BAG|ADD D2A,|CDE EDC|
A,CE AEC|B,DG BAG|ABc BAG|ADD D3:|

